images_breeze_svg/cmd/sc_objectposition.svg

<svg viewBox="0 0 16 16" xmlns="http://www.w3.org/2000/svg">
/&amp;gt;<path d="m2 2v1h5 7v-1h-7zm2.5 2-.1875.21875-2.3125 2.5.65625.6875 1.34375-1.4375v4.03125 4h1v-4-4.03125l1.34375 1.4375.65625-.6875-2.3125-2.5zm3.5 2v1h1 5v-1h-5z" fill="#4d4d4d"/><path d="m7 12c-.5522847 0-1 .447715-1 1s.4477153 1 1 1 1-.447715 1-1-.4477153-1-1-1zm3 0c-.5522847 0-1 .447723-1 1s.4477153 1 1 1c.552285 0 1-.447723 1-1s-.447715-1-1-1zm3 0c-.552285 0-1 .447723-1 1s.447715 1 1 1 1-.447723 1-1-.447715-1-1-1z" fill="#f47750"/></svg>

<?xml version="1.0" encoding="UTF-8" standalone="no"?>
<svg
   xmlns:dc="http://purl.org/dc/elements/1.1/"
   xmlns:cc="http://creativecommons.org/ns#"
   xmlns:rdf="http://www.w3.org/1999/02/22-rdf-syntax-ns#"
   xmlns:svg="http://www.w3.org/2000/svg"
   xmlns="http://www.w3.org/2000/svg"
   xmlns:sodipodi="http://sodipodi.sourceforge.net/DTD/sodipodi-0.dtd"
   xmlns:inkscape="http://www.inkscape.org/namespaces/inkscape"
   viewBox="0 0 16 16"
   version="1.1"
   id="svg4"
   sodipodi:docname="sc_objectposition.svg"
   inkscape:version="0.92.4 (unknown)"
   inkscape:export-filename="/home/rizmut/Dokumen/Rizmut/Github/tmp/breeze/cmd/sc_objectposition.png"
   inkscape:export-xdpi="96"
   inkscape:export-ydpi="96"><metadata
   id="metadata10">
  <rdf:RDF>
    <cc:Work
       rdf:about="">
      <dc:format>image/svg+xml</dc:format>
      <dc:type
         rdf:resource="http://purl.org/dc/dcmitype/StillImage" />
    </cc:Work>
  </rdf:RDF>
</metadata>
<defs
   id="defs8" />
<sodipodi:namedview
   pagecolor="#ffffff"
   bordercolor="#666666"
   borderopacity="1"
   objecttolerance="10"
   gridtolerance="10"
   guidetolerance="10"
   inkscape:pageopacity="0"
   inkscape:pageshadow="2"
   inkscape:window-width="1360"
   inkscape:window-height="714"
   id="namedview6"
   showgrid="true"
   inkscape:zoom="20.85965"
   inkscape:cx="2.6825923"
   inkscape:cy="7.4241421"
   inkscape:window-x="0"
   inkscape:window-y="28"
   inkscape:window-maximized="1"
   inkscape:current-layer="svg4">
  <inkscape:grid
     type="xygrid"
     id="grid823" />
</sodipodi:namedview>
/&gt;<path
   d="m 2,2 v 1 h 5 7 V 2 H 7 Z M 4.5,4 4.3125,4.21875 2,6.71875 2.65625,7.40625 4,5.96875 V 10 14 H 5 V 10 5.96875 L 6.34375,7.40625 7,6.71875 4.6875,4.21875 Z M 8,6 v 1 h 1 5 V 6 H 9 Z"
   id="path2"
   inkscape:connector-curvature="0"
   style="fill:#4d4d4d"
   sodipodi:nodetypes="cccccccccccccccccccccccccccc" />
<path
   inkscape:connector-curvature="0"
   style="fill:#f47750"
   d="m 7,12 c -0.5522847,0 -1,0.447715 -1,1 0,0.552285 0.4477153,1 1,1 0.5522847,0 1,-0.447715 1,-1 0,-0.552285 -0.4477153,-1 -1,-1 z m 3,0 c -0.5522847,0 -1,0.447723 -1,1 0,0.552277 0.4477153,1 1,1 0.552285,0 1,-0.447723 1,-1 0,-0.552277 -0.447715,-1 -1,-1 z m 3,0 c -0.552285,0 -1,0.447723 -1,1 0,0.552277 0.447715,1 1,1 0.552285,0 1,-0.447723 1,-1 0,-0.552277 -0.447715,-1 -1,-1 z"
   id="path4" />
</svg>
